X: 19
T:Kitty's 
R:hornpipe
Z:Boston sessions
M:4/4
L:1/8
K:D
fe|d2Bd A2FA|BAFE DFED|B,DA,D DFBF|AFDF E2fe|
d2Bd A2FA|BAFA D2ED|B,DA,D DFBF|AFEF D2:|
fg|afed bafd|Adfd edBA|DFAd FAde|fdgf e2fg|
afed bafd|Adfd edBA|DFAd FAdf|eABc d2:|
